packages/core/src/svgs/knc.svg

<svg width="24" height="24" viewBox="0 0 24 24" fill="none" xmlns="http://www.w3.org/2000/svg">
<g clip-path="url(#clip0_31_12814)">
<path d="M0 0H24V24H0V0Z" fill="#31CB9E"/>
<path d="M12.6317 4.75707C12.6027 4.73538 12.5687 4.72138 12.5328 4.7164C12.497 4.71141 12.4604 4.7156 12.4266 4.72857C12.3928 4.74154 12.3628 4.76286 12.3395 4.79056C12.3161 4.81825 12.3002 4.85141 12.2931 4.88693L11.1703 10.5771C11.1627 10.6171 11.1666 10.6585 11.1817 10.6964C11.1968 10.7343 11.2224 10.7671 11.2555 10.7909C11.2885 10.8148 11.3277 10.8287 11.3684 10.8311C11.4091 10.8334 11.4497 10.8241 11.4853 10.8042L16.4717 8.00393C16.5027 7.98657 16.5288 7.96174 16.5478 7.9317C16.5667 7.90166 16.5778 7.86736 16.5801 7.83193C16.5824 7.7965 16.5758 7.76105 16.5609 7.72881C16.546 7.69658 16.5233 7.66858 16.4949 7.64736L12.6317 4.75707Z" fill="white"/>
<path d="M11.0117 5.02439C11.0464 4.9986 11.0879 4.98387 11.131 4.98211C11.1742 4.98035 11.2168 4.99165 11.2534 5.01453C11.29 5.03741 11.3188 5.0708 11.3361 5.11033C11.3534 5.14987 11.3584 5.1937 11.3503 5.2361L10.0517 11.8172C10.0465 11.844 10.0465 11.8715 10.0517 11.8982L11.3555 18.7952C11.3631 18.8367 11.3583 18.8795 11.3418 18.9182C11.3252 18.957 11.2976 18.99 11.2624 19.0131C11.2272 19.0363 11.1859 19.0485 11.1438 19.0484C11.1016 19.0482 11.0605 19.0356 11.0255 19.0121L6.95275 16.3035C6.92338 16.2841 6.89928 16.2577 6.8826 16.2266C6.86593 16.1956 6.85719 16.1609 6.85718 16.1257V8.2391C6.85718 8.17181 6.88889 8.10839 6.94289 8.0681L11.0117 5.02439Z" fill="white"/>
<path d="M12.2872 19.1115C12.2938 19.1463 12.3089 19.179 12.3312 19.2065C12.3536 19.234 12.3824 19.2556 12.4151 19.2693C12.4478 19.283 12.4833 19.2883 12.5186 19.2848C12.5539 19.2814 12.5878 19.2692 12.6172 19.2495L16.644 16.5709C16.6738 16.5512 16.6981 16.5244 16.7148 16.4929C16.7315 16.4613 16.74 16.4261 16.7395 16.3905C16.739 16.3548 16.7296 16.3199 16.7121 16.2888C16.6946 16.2577 16.6696 16.2315 16.6393 16.2126L11.4982 12.9992C11.4629 12.9771 11.422 12.9658 11.3804 12.9666C11.3388 12.9673 11.2983 12.9802 11.2639 13.0036C11.2295 13.027 11.2027 13.0599 11.1867 13.0984C11.1707 13.1368 11.1662 13.179 11.1738 13.2199L12.2872 19.1115ZM16.8146 15.3143C16.847 15.3347 16.8842 15.346 16.9225 15.3471C16.9607 15.3482 16.9985 15.339 17.032 15.3206C17.0655 15.3021 17.0935 15.275 17.113 15.2421C17.1325 15.2092 17.1428 15.1717 17.1429 15.1335V8.97277C17.1428 8.93543 17.1329 8.89877 17.1142 8.86644C17.0955 8.8341 17.0688 8.8072 17.0365 8.7884C17.0042 8.76961 16.9676 8.75957 16.9303 8.75928C16.8929 8.759 16.8562 8.76847 16.8236 8.78677L11.6315 11.7023C11.599 11.7204 11.5719 11.7466 11.5527 11.7784C11.5335 11.8102 11.5229 11.8464 11.522 11.8835C11.5212 11.9206 11.53 11.9573 11.5477 11.99C11.5654 12.0226 11.5913 12.0501 11.6229 12.0696L16.8142 15.3139L16.8146 15.3143Z" fill="white"/>
</g>
<defs>
<clipPath id="clip0_31_12814">
<rect width="24" height="24" fill="white"/>
</clipPath>
</defs>
</svg>

<svg xmlns="http://www.w3.org/2000/svg" width="24" height="24" fill="none" viewBox="0 0 24 24"><g clip-path="url(#a)"><path fill="#31CB9E" d="M0 0h24v24H0z"/><path fill="#fff" d="M12.632 4.757a.214.214 0 0 0-.339.13l-1.123 5.69a.214.214 0 0 0 .315.227l4.987-2.8a.213.213 0 0 0 .023-.357z"/><path fill="#fff" d="M11.012 5.024a.215.215 0 0 1 .338.212l-1.298 6.581a.2.2 0 0 0 0 .081l1.303 6.897a.215.215 0 0 1-.33.217l-4.072-2.709a.21.21 0 0 1-.096-.177V8.239c0-.067.032-.13.086-.17z"/><path fill="#fff" d="M12.287 19.112a.214.214 0 0 0 .33.138l4.027-2.68a.213.213 0 0 0-.005-.357l-5.14-3.214a.214.214 0 0 0-.325.22zm4.528-3.798a.214.214 0 0 0 .328-.18V8.973a.214.214 0 0 0-.32-.186l-5.191 2.915a.213.213 0 0 0-.01.368z"/></g><defs><clipPath id="a"><path fill="#fff" d="M0 0h24v24H0z"/></clipPath></defs></svg>
